X: 23439
T: Leslie's March
R: jig
M: 6/8
K: Dmajor
c|:d3 d3|dcB ABc|dcB AGF|G2E E2D|
~e3 ede|fdd dag|fef d2 A|def e2e:|
|:fed eAA|fed eAA|gfe fBB|gfe fBB|
fed eAA|fed eag|fef d2 A|1 def e2e:|2 def edc||
|:dfa dfa|dfa afd|egb egb|egb bge|
dfa dfa|dfa a2 g|fef d2 A|def edc:|

